img/journal.svg

<svg width="15" height="18" viewBox="0 0 15 18" fill="none" xmlns="http://www.w3.org/2000/svg">
<path fill-rule="evenodd" clip-rule="evenodd" d="M14 15V2C14 1.5 14 1.25 13.875 1.125C13.75 1 13.5 1 13 1V0H14C14.5 0 15 0.5 15 1V17C15 17.5 14.5 18 14 18H0V0H7V1H2V15H14ZM14 16C14 16.5 14 16.75 13.875 16.875C13.75 17 13.5 17 13 17H1V16H14Z" fill="currentColor"/>
<path d="M8 0V8L10 7L12 8V0H8Z" fill="currentColor"/>
</svg>

<svg width="15" height="18" fill="none" xmlns="http://www.w3.org/2000/svg"><path fill-rule="evenodd" clip-rule="evenodd" d="M14 15V2c0-.5 0-.75-.125-.875S13.5 1 13 1V0h1c.5 0 1 .5 1 1v16c0 .5-.5 1-1 1H0V0h7v1H2v14h12Zm0 1c0 .5 0 .75-.125.875S13.5 17 13 17H1v-1h13Z" fill="currentColor"/><path d="M8 0v8l2-1 2 1V0H8Z" fill="currentColor"/></svg>
